components/Icon/svg/arrow.svg

<svg width="16" height="16" viewBox="0 0 16 16" fill="none" xmlns="http://www.w3.org/2000/svg">
<path d="M0.000842138 4.40022C0.000842138 4.29781 0.0421069 4.19541 0.123794 4.11701C0.288011 3.961 0.554969 3.961 0.719186 4.11701L8.00032 11.0342L15.2814 4.11701C15.4457 3.961 15.7126 3.961 15.8768 4.11701C16.0411 4.27301 16.0411 4.52663 15.8768 4.68263L8.29759 11.883C8.13337 12.039 7.86642 12.039 7.7022 11.883L0.122952 4.68263C0.0404226 4.60423 0 4.50183 0 4.39942L0.000842138 4.40022Z" fill="currentColor"/>
</svg>

<svg xmlns="http://www.w3.org/2000/svg" width="16" height="16" viewBox="0 0 16 16">
  <path fill="currentColor" d="M0 4.4c0-.102.042-.205.124-.283a.437.437 0 0 1 .595 0L8 11.034l7.281-6.917a.437.437 0 0 1 .596 0 .386.386 0 0 1 0 .566l-7.58 7.2a.437.437 0 0 1-.595 0l-7.579-7.2A.388.388 0 0 1 0 4.399V4.4Z"/>
</svg>
